X:1
T:Camp Meeting on the Fourth of July
M:C
L:1/8
R:March
S:James Bryan – Festival of Fiddle Tunes, 1995
Z:From a transcription by Dave Barton
K:D
DE |\
"D"F2F2 FEDF | A2B2 AFDE \
|1,3 "D"F2F2 ABAF | "A"EDEF E2 \
:|2,4 "D"F2F2 "A"FDEF | "D"D3E D2 :|
|: (3ABc |\
"D"d2de dcBA | "G"B2B2 "D"AFA2 \
|1,3 "D"d2de dcBA | "G"BABc B2 \
:|2,4 "A"A2AB AFE2 | "D"D3E D2 :|

